X:1
T:Down and Up (Left hand)
M:4/4
L:1/4
K:Cmaj
V: RH1 clef=treble
%%MIDI channel 4
%%MIDI program 1 4
%%MIDI gchordoff
V: LH1 clef=bass
%%MIDI channel 3
%%MIDI program 1 3
%%MIDI gchordoff
%
[V: RH1] | z4      | z4      | z4        | z4    | z4
[V: LH1] | CB,A,G, | F,2 F,2 | F,G,A,B,  | C2 C2 | z4
[V: RH1] | z4       | z4    | z4        | z4     | z4
[V: LH1] | CB,A,G, | F,2 F,2 | F,G,A,B,  | C2 C2 | z4
[V: RH1] | z4       | z4      | z4     | z4
[V: LH1] | CB,A,G, | F,G,A,B, | C2 C2 | z4
%
